Adwaita++-Dark/status/symbolic/network-cellular-3g-symbolic.svg

<svg height="16" width="16" xmlns="http://www.w3.org/2000/svg">
  <path d="m2 1c-1.108 0-2 .892-2 2v10c0 1.108.892 2 2 2h12c1.108 0 2-.892 2-2v-10c0-1.108-.892-2-2-2zm0 2h4c.666.02 1.168.8395.877 1.4395l-1.375 2.7812c.354.11.7477.1895.9668.4395.3329.36.5312.8098.5312 1.3398v2c0 1.11-.907 2-2 2h-3v-2h3v-2h-1c-.666-.02-1.165-.8395-.873-1.4395l1.25-2.5605h-2.377zm8 0h2c2 0 2 2 2 2v1h-2v-1h-2v6h2v-2h-1v-2h3v4s0 2-2 2h-2s-2 0-2-2v-6c0-2 2-2 2-2z" fill="#e6ddff"/>
</svg>

<svg xmlns="http://www.w3.org/2000/svg" width="16" height="16" version="1.1">
 <path style="fill:#E6DDFF" d="M 2 1 C 0.892 1 0 1.892 0 3 L 0 13 C 0 14.108 0.892 15 2 15 L 14 15 C 15.108 15 16 14.108 16 13 L 16 3 C 16 1.892 15.108 1 14 1 L 2 1 z M 2 3 L 6 3 C 6.666 3.02 7.168 3.8395 6.877 4.4395 L 5.502 7.2207 C 5.856 7.3307 6.2497 7.4102 6.4688 7.6602 C 6.8017 8.0202 7 8.47 7 9 L 7 11 C 7 12.11 6.093 13 5 13 L 2 13 L 2 11 L 5 11 L 5 9 L 4 9 C 3.334 8.98 2.835 8.1605 3.127 7.5605 L 4.377 5 L 2 5 L 2 3 z M 10 3 L 12 3 C 14 3 14 5 14 5 L 14 6 L 12 6 L 12 5 L 10 5 L 10 11 L 12 11 L 12 9 L 11 9 L 11 7 L 14 7 L 14 11 C 14 11 14 13 12 13 L 10 13 C 10 13 8 13 8 11 L 8 5 C 8 3 10 3 10 3 z"/>
</svg>
